X:105
T:Ca' Hawkie Through the Water
T:Lord Elphinston
R:Strathspey
B:The Athole Collection
M:C|
L:1/8
K:A Minor
a|g<e e>d c>de>a|g<e e<d c<A A>a|g<e e>d c>de>g|e<a a>^g a<A A:|
B|c2 c>e d2d>e|c2 c>e d>BG>B|c2 c>e d2 d>f|e<a a>^g a<A A>B|
c2 c>e d2 d>e|c2 c>e d>BG>B|c>ec>e d<gd<g|e<a a>^g aAA||
|:c|G<E E>D C>DE>A|G<E E>D C<A, A,>A|G<E E>D C>DE>G|
E<A A>^G A>A, A:|
B,|C2 C>E D2 D>E|C2 C>E D>B,G,>B,|C2 C>E D2 D>F|
E<A A>^G A<A, A,>B|c>ec>e d>ed>e|c>ec>e d>BG>B|
c>ec>e d>gd>g|e<a a>^g a<AA||

